actions/16/view-financial-account-savings-closed.svg

<svg version="1.1" viewBox="0 0 16 16" xmlns="http://www.w3.org/2000/svg"><style type="text/css" id="current-color-scheme">.ColorScheme-Text { color:#eff0f1; }.ColorScheme-NegativeText { color: #da4453; }</style>
    <path d="m8 2a3 3 0 0 0-2.5136719 1.3652344l0.7167969 0.7167968a2 2 0 0 1 1.796875-1.1210937 2 2 0 0 1 2 2 2 2 0 0 1-1.1210938 1.796875l1.2421878 1.2421875h1.878906v-1h-1.769531a3 3 0 0 0 0.769531-2h2v5.878906l1 1v-7.878906h-3.175781a3 3 0 0 0-2.824219-2zm-6 2.1210938v9.8789062h9.878906l-1.9999998-2h-6.8789062v-6.8789062l-1-1zm2 2.8789062v1h1.8789062l-1-1h-0.8789062z" fill="currentColor" class="ColorScheme-Text"/>
    <path d="M 2.7070311,2 1.9999999,2.7070312 13.292969,14 14,13.267578 Z" fill="currentColor" class="ColorScheme-NegativeText"/>
</svg>

<svg version="1.1" viewBox="0 0 16 16" xmlns="http://www.w3.org/2000/svg"><style type="text/css" id="current-color-scheme">.ColorScheme-Text { color: #fcfcfc; }.ColorScheme-NegativeText { color: #da4453; }</style>
    <path d="M 8,2 C 6.9851231,2.0006052 6.0393566,2.5142732 5.4863281,3.3652344 L 6.203125,4.0820312 C 6.5388275,3.3958375 7.2360903,2.9608061 8,2.9609375 c 1.1045695,0 2,0.8954305 2,2 1.31e-4,0.7639097 -0.4349,1.4611725 -1.1210938,1.796875 L 10.121094,8 H 12 V 7 H 10.230469 C 10.724456,6.4508067 10.998461,5.7386703 11,5 h 1 c 0,0 1,0 1,1 0,1 0,4.878906 0,4.878906 l 1,1 C 14,11.878906 14,8 14,6 14,4 12,4 12,4 L 10.824219,4 C 10.400952,2.8028154 9.2698043,2.0017816 8,2 Z M 2,4.1210938 C 2,4.1210938 2,10 2,12 c 0,2 2,2 2,2 h 7.878906 L 9.8789062,12 H 4 C 4,12 3,12 3,11 3,10 3,5.1210938 3,5.1210938 Z M 4,7 v 1 h 1.8789062 l -1,-1 z" fill="currentColor" class="ColorScheme-Text"/>
    <path d="M 2.7070311,2 1.9999999,2.7070312 13.292969,14 14,13.267578 Z" fill="currentColor" class="ColorScheme-NegativeText"/>
</svg>
